src/pages/Home/images/double-curly.svg

<svg width="108" height="18" viewBox="0 0 108 18" fill="none" xmlns="http://www.w3.org/2000/svg">
<path d="M58.8125 0.245567C52.0233 0.500162 40.8777 1.74485 34.7674 2.90467C27.95 4.20593 18.4168 6.9499 12.4197 9.29784C8.45929 10.8537 1.72667 14.2483 0.708289 15.1818C-0.112073 15.9456 -0.225226 16.766 0.397117 17.3034C0.764866 17.5863 1.21748 17.5015 3.02793 16.7942C4.21604 16.3133 5.60217 15.8324 6.05478 15.7193C6.53569 15.6061 9.13821 14.6726 11.8539 13.626C17.4267 11.476 25.7152 8.70378 30.3828 7.43081C47.2709 2.79152 65.828 1.40539 81.2735 3.61188C87.3837 4.46053 96.7472 6.55387 104.894 8.84522C106.507 9.29784 107.893 9.60901 107.978 9.55243C108.487 9.01495 100.198 6.10125 92.7585 4.17765C83.9609 1.91458 77.3414 0.839622 68.9963 0.330433C64.5268 0.0758381 63.5933 0.0475502 58.8125 0.245567Z" fill="#BD1B7F"/>
<path d="M51.4859 6.29924C40.7929 7.06302 30.694 9.60897 22.8298 13.4845C19.9161 14.8989 18.4451 16.1153 18.728 16.8508C19.0109 17.558 20.3404 17.3883 23.3673 16.3416C24.8948 15.8041 27.8085 14.7575 29.817 14.0502C38.7844 10.8537 48.5439 9.09978 60.5947 8.53402C67.2708 8.22285 74.8521 8.47744 85.5168 9.38267C89.2508 9.69384 92.3342 9.89186 92.3908 9.83528C92.6171 9.63726 88.0061 8.53402 84.5549 7.99654C74.06 6.32753 60.5947 5.64861 51.4859 6.29924Z" fill="#BD1B7F"/>
</svg>

<svg width="108" height="18" fill="none" xmlns="http://www.w3.org/2000/svg"><path d="M58.813.246C52.023.5 40.877 1.745 34.767 2.905c-6.817 1.3-16.35 4.045-22.347 6.393-3.96 1.556-10.693 4.95-11.712 5.884-.82.764-.933 1.584-.31 2.121.367.283.82.198 2.63-.509 1.188-.48 2.574-.962 3.027-1.075.48-.113 3.083-1.046 5.799-2.093 5.573-2.15 13.861-4.922 18.529-6.195 16.888-4.64 35.445-6.026 50.89-3.82 6.11.85 15.474 2.943 23.621 5.234 1.613.453 2.999.764 3.084.707.509-.537-7.78-3.45-15.22-5.374C83.962 1.915 77.341.84 68.996.33 64.526.076 63.593.048 58.813.246Z" fill="#BD1B7F"/><path d="M51.486 6.3c-10.693.763-20.792 3.309-28.656 7.185-2.914 1.414-4.385 2.63-4.102 3.366.283.707 1.612.537 4.64-.51 1.527-.537 4.44-1.584 6.449-2.29 8.967-3.197 18.727-4.951 30.778-5.517 6.676-.311 14.257-.057 24.922.849 3.734.31 6.817.509 6.874.452.226-.198-4.385-1.301-7.836-1.838-10.495-1.67-23.96-2.348-33.07-1.698Z" fill="#BD1B7F"/></svg>
